app/app/icon.svg

<?xml version="1.0" encoding="UTF-8" standalone="no"?>
<!-- Created with Inkscape (http://www.inkscape.org/) -->

<svg
   width="16"
   height="16"
   viewBox="0 0 4.2333333 4.2333332"
   version="1.1"
   id="svg1"
   sodipodi:docname="favicon.svg"
   inkscape:version="1.4.2 (f4327f4, 2025-05-13)"
   inkscape:export-filename="favicon_16.png"
   inkscape:export-xdpi="1536"
   inkscape:export-ydpi="1536"
   xmlns:inkscape="http://www.inkscape.org/namespaces/inkscape"
   xmlns:sodipodi="http://sodipodi.sourceforge.net/DTD/sodipodi-0.dtd"
   xmlns="http://www.w3.org/2000/svg"
   xmlns:svg="http://www.w3.org/2000/svg">
  <sodipodi:namedview
     id="namedview1"
     pagecolor="#ffffff"
     bordercolor="#000000"
     borderopacity="0.25"
     inkscape:showpageshadow="2"
     inkscape:pageopacity="0.0"
     inkscape:pagecheckerboard="0"
     inkscape:deskcolor="#d1d1d1"
     inkscape:document-units="mm"
     inkscape:zoom="11.313709"
     inkscape:cx="48.657785"
     inkscape:cy="27.046834"
     inkscape:window-width="2400"
     inkscape:window-height="1262"
     inkscape:window-x="-8"
     inkscape:window-y="474"
     inkscape:window-maximized="1"
     inkscape:current-layer="layer1"
     inkscape:export-bgcolor="#ffffff00" />
  <defs
     id="defs1" />
  <g
     inkscape:label="Layer 1"
     inkscape:groupmode="layer"
     id="layer1">
    <rect
       style="fill:#f1eee7;fill-opacity:1;stroke-width:0.0698684"
       id="rect4"
       width="4.2251067"
       height="4.2251067"
       x="0.01227361"
       y="0.005856635"
       rx="0.6"
       ry="0.6" />
    <path
       id="path2"
       d="M 2.0604265,0.05012544 C 1.9702241,0.05356402 1.8803843,0.06557822 1.7928896,0.086771 1.5974359,0.13013061 1.4127092,0.22232325 1.2569425,0.34759239 1.2112459,0.38584245 1.1650011,0.42513352 1.1256625,0.47003169 1.0189204,0.58258526 0.93244879,0.71470882 0.87110579,0.85716429 0.80956385,1.0030466 0.77265337,1.1586158 0.76515318,1.3168659 c -0.002826,0.07604 -0.002931,0.1528836 0.005167,0.2285814 0.008289,0.098199 0.031491,0.1933648 0.0604484,0.2872918 0.0302992,0.088763 0.0706818,0.1743973 0.11608063,0.2563537 0.0767904,0.1342591 0.16674919,0.2548608 0.23718199,0.3937893 0.033428,0.069739 0.063476,0.1398203 0.083297,0.2148229 0.02255,0.081705 0.031985,0.1708157 0.046289,0.2527235 0.018924,0.086376 0.036908,0.1705168 0.086132,0.2458174 0.022351,0.036655 0.052697,0.067103 0.087268,0.092335 -0.057916,0.080463 -0.054934,0.1968956 0.014406,0.269712 -0.024637,0.028614 -0.044357,0.059558 -0.051064,0.097352 -0.010721,0.050369 -0.00345,0.1032672 0.021858,0.1482183 0.025431,0.044009 0.064276,0.07967 0.1118606,0.098247 0.03765,0.016188 0.077233,0.017831 0.1175649,0.014459 0.03015,0.067007 0.077339,0.1237239 0.1342124,0.1697185 0.065216,0.050866 0.1439937,0.083901 0.2260494,0.094427 0.086675,0.011269 0.1746961,-0.00514 0.253225,-0.042767 0.09512,-0.04868 0.1764251,-0.1224861 0.2210292,-0.2208848 0.032683,-3.028e-4 0.06303,0.00116 0.094522,-0.00945 0.084888,-0.025527 0.1504513,-0.1036643 0.1581504,-0.1923763 0.00336,-0.042566 -0.00541,-0.089403 -0.030246,-0.1248193 -0.0076,-0.011375 -0.016194,-0.021307 -0.024738,-0.03228 0.068447,-0.071275 0.074358,-0.1918318 0.012318,-0.2689709 0.020315,-0.015146 0.039643,-0.030295 0.056977,-0.048976 0.050018,-0.057819 0.078381,-0.1271104 0.097402,-0.2004245 0.029852,-0.1097192 0.03253,-0.2313572 0.062879,-0.341079 C 2.9909411,2.593634 3.0349521,2.4966779 3.087653,2.402155 3.156495,2.2826477 3.23701,2.1689968 3.3039162,2.047204 c 0.030746,-0.057618 0.057418,-0.1172198 0.080712,-0.1781659 0.025878,-0.074255 0.050216,-0.1516946 0.06333,-0.2292797 0.0087,-0.047686 0.015057,-0.095713 0.019129,-0.1440426 0.00322,-0.073014 0.00472,-0.145588 -0.00115,-0.2185038 C 3.4530322,1.1155942 3.40763,0.95620284 3.3396806,0.8092776 3.2671606,0.65365962 3.1630019,0.5127906 3.0359448,0.39735567 2.8410871,0.21963476 2.5909957,0.10296305 2.3301258,0.0654121 2.2411909,0.05197443 2.1506296,0.04672163 2.0604278,0.05013119 Z m 0.038759,0.14819625 c 0.033702,-4.201e-5 0.067401,9.5507e-4 0.1018491,0.001529 0.094473,0.007068 0.1872055,0.0216511 0.2778541,0.0497203 0.1021222,0.028709 0.1975421,0.073864 0.2877936,0.12929381 0.1986819,0.12760428 0.3581748,0.31441731 0.4516549,0.53137776 0.035415,0.0850862 0.065366,0.17116254 0.082749,0.26181074 0.017235,0.085086 0.024634,0.1724098 0.021952,0.2591845 -0.00408,0.067303 -0.00898,0.1325676 -0.023195,0.1987283 -0.013263,0.06845 -0.033923,0.1355542 -0.057815,0.2010205 -0.043561,0.114242 -0.1043115,0.2181467 -0.1740989,0.3181335 -0.01202,0.017878 -0.023736,0.035863 -0.03531,0.053999 C 2.9428153,2.3393658 2.865924,2.4857971 2.823108,2.6439479 2.800061,2.7225299 2.789927,2.8005582 2.779794,2.8814716 2.76847,2.9539416 2.755701,3.0363408 2.718051,3.1002666 2.696047,3.1373696 2.657952,3.1763656 2.6143909,3.1853996 2.6099709,3.1621536 2.6082209,3.1386116 2.6030699,3.1155186 2.5850382,3.0353981 2.5513599,2.9592571 2.5026821,2.8929961 2.4766549,2.8595691 2.4492878,2.8273359 2.418492,2.798178 2.3545662,2.734552 2.2893466,2.6722127 2.2252716,2.6087338 2.3009197,2.5350225 2.3760199,2.4608594 2.4507244,2.3861558 2.5048647,2.3317651 2.5478807,2.2661537 2.5768386,2.1951251 2.6371391,2.0455175 2.6301403,1.8715212 2.5621423,1.7257384 2.5249885,1.6433838 2.46603,1.5713152 2.4008125,1.5094752 2.3429962,1.4542442 2.2860684,1.3981079 2.228103,1.343023 2.2905874,1.2799896 2.3546677,1.2185513 2.4174016,1.1557181 c 0.030101,-0.031737 0.061589,-0.060245 0.088163,-0.095267 0.047733,-0.060799 0.079377,-0.13103776 0.099245,-0.20544443 0.015198,-0.0583638 0.018473,-0.11875663 0.017877,-0.17885747 -3.562e-4,-0.0215075 0.00203,-0.0442092 -0.00188,-0.0654219 -0.00353,-0.020467 -0.022103,-0.0332357 -0.04212,-0.033923 -0.026473,-8.91e-4 -0.0533,-6.4177e-4 -0.079774,-1.9571e-4 -0.011473,-2.4935e-4 -0.022745,0.006491 -0.030245,0.0148036 -0.010431,0.0139529 -0.00957,0.0284132 -0.010082,0.0449065 -0.2295773,1.499e-4 -0.4592013,1.9672e-4 -0.6887786,0 -3.921e-4,-0.0183748 0.00183,-0.0336753 -0.013068,-0.0472377 -0.017484,-0.0182795 -0.039485,-0.0115274 -0.062333,-0.0128168 -0.024288,9.4452e-4 -0.051707,-0.004198 -0.071326,0.0136095 -0.018081,0.0169429 -0.012521,0.0392334 -0.013367,0.0614383 0.0012,0.0421654 -0.00276,0.0833001 0.00396,0.12423007 0.011324,0.11642828 0.059361,0.22853394 0.1382868,0.31520934 0.031541,0.03825 0.068692,0.069739 0.1030635,0.1052544 0.050762,0.047485 0.099388,0.097254 0.1492079,0.1457809 -0.058363,0.058163 -0.1183139,0.114689 -0.1764784,0.1730516 -0.045052,0.043609 -0.089557,0.092383 -0.1215447,0.1465745 -0.040779,0.064972 -0.067897,0.1366 -0.082452,0.2117526 -0.015846,0.090845 -0.011521,0.1848226 0.014703,0.2733353 0.027419,0.091046 0.078034,0.1759809 0.1465307,0.2420929 0.073661,0.073369 0.1462729,0.147967 0.2215238,0.2197414 -0.047138,0.045298 -0.093081,0.09179 -0.1397713,0.1375885 -0.043958,0.044258 -0.088559,0.08693 -0.1265071,0.1367441 -0.0661,0.086424 -0.1128453,0.1934122 -0.1216868,0.3023889 C 1.5911307,3.179911 1.5672911,3.1615151 1.5473235,3.1428427 1.5192556,3.1128925 1.5003842,3.0726555 1.4875189,3.0340603 1.4585137,2.9448003 1.4529944,2.8586293 1.4365541,2.767236 1.4131589,2.6144488 1.352614,2.4644915 1.2767668,2.330431 1.2340997,2.254781 1.1852742,2.1843016 1.1377887,2.1118327 1.0680514,2.0036496 1.0077022,1.8925812 0.96846257,1.7694475 c -0.028858,-0.088467 -0.0484271,-0.1808009 -0.0552319,-0.273685 -0.006261,-0.045747 -0.002686,-0.092983 -0.003629,-0.1391242 -0.00114,-0.031784 0.004923,-0.062633 0.006063,-0.094322 0.0278662,-0.2383689 0.12606723,-0.46779284 0.28297663,-0.64973602 0.031292,-0.0390909 0.069136,-0.0737596 0.1046498,-0.10897871 0.033677,-0.0307433 0.07039,-0.0603024 0.1077422,-0.0864711 0.170966,-0.12323301 0.3767017,-0.19600263 0.5863116,-0.21388419 0.034447,-0.003725 0.068147,-0.00487 0.1018491,-0.00487 z M 2.4633402,0.78448725 C 2.4528137,0.84915357 2.4281277,0.91100467 2.3895328,0.96410214 2.361866,1.0005082 2.3309172,1.0344892 2.2970911,1.065281 2.2366925,1.1243426 2.1754052,1.1826975 2.1167939,1.243594 2.0782996,1.2038063 2.0375148,1.1663107 1.9985232,1.1270176 1.9550613,1.0846991 1.9085701,1.0441665 1.8695788,0.9975789 1.817574,0.93673205 1.7797739,0.86451338 1.7681011,0.78474218 1.9998636,0.78489217 2.2315777,0.7857933 2.4633406,0.78449294 Z M 2.1176883,1.4451082 c 0.014951,0.011918 0.027217,0.025327 0.040876,0.038641 0.034821,0.03462 0.069885,0.068993 0.1045551,0.103815 0.014901,0.015195 0.030647,0.028212 0.04386,0.044801 -0.1261628,-0.00105 -0.2524264,6.402e-4 -0.3785896,-4.99e-4 0.063081,-0.062289 0.1257699,-0.1249196 0.1892985,-0.1867597 z m 0.2957821,0.325941 c 0.027171,0.04654 0.040136,0.097801 0.048182,0.1507004 -0.083546,-6.953e-4 -0.1671401,4.76e-5 -0.250686,-3.029e-4 -0.1467266,5.875e-4 -0.2935545,-9.444e-4 -0.4402318,9.438e-4 0.00561,-0.040037 0.014258,-0.078631 0.031097,-0.1155352 0.00547,-0.011469 0.010485,-0.024889 0.019173,-0.034277 0.015547,-0.0021 0.03159,-0.00105 0.047236,-0.00124 0.1816947,-4.987e-4 0.3635363,4.458e-4 0.5452311,-2.494e-4 z m 0.046595,0.2960811 c -0.00289,0.026818 -0.012565,0.052652 -0.022352,0.077684 -0.00884,0.021508 -0.018531,0.043617 -0.031941,0.062691 -0.00392,0.0064 -0.00923,0.00514 -0.015849,0.00563 -0.1722574,0 -0.3444593,3.028e-4 -0.5167168,-3.562e-4 -0.012615,-5.521e-4 -0.027219,0.0019 -0.039241,-0.0023 -0.00833,-0.00812 -0.013563,-0.01996 -0.019375,-0.029999 C 1.7950206,2.1444241 1.7814636,2.1075701 1.7732186,2.06739 2.0021503,2.0664999 2.2311304,2.0670339 2.460062,2.0671409 Z M 1.9531789,2.3452392 c 0.10863,3.026e-4 0.2172085,-2.675e-4 0.3257884,2.675e-4 -0.054638,0.052797 -0.1096737,0.105751 -0.1613808,0.1614314 -0.03914,-0.036703 -0.076,-0.07565 -0.1150912,-0.112355 -0.017037,-0.015845 -0.032529,-0.033179 -0.049318,-0.049319 z m 0.1645532,0.3706883 c 0.016143,0.011526 0.029459,0.026827 0.044011,0.040934 0.054242,0.053396 0.1078866,0.1073361 0.1619775,0.16093 0.047287,0.046588 0.086972,0.1022745 0.1131484,0.1634179 0.014305,0.033283 0.020458,0.068095 0.028703,0.1030635 -0.2322097,5.529e-4 -0.4644633,5.884e-4 -0.6966729,0 0.00833,-0.04187 0.018373,-0.082546 0.037945,-0.1207956 0.024835,-0.054781 0.064868,-0.1038141 0.1073856,-0.1459338 0.034324,-0.035213 0.069842,-0.069243 0.104512,-0.1041111 0.033478,-0.032043 0.064915,-0.066166 0.09899,-0.097505 z M 1.6645925,3.3382543 c 0.2102553,2.674e-4 0.4205556,-2.139e-4 0.6308112,0 0.091046,1.328e-4 0.1821442,-1.756e-4 0.2731904,8.88e-5 0.037949,-0.0021 0.075998,0.030743 0.074906,0.069642 0.00115,0.039387 -0.036264,0.072079 -0.074906,0.06949 -0.3029408,0 -0.60608,8.8e-5 -0.9089711,-4.48e-5 -0.041474,3.572e-4 -0.07803,-0.040579 -0.066954,-0.081954 0.00736,-0.033331 0.037402,-0.058365 0.071922,-0.057218 z m 0.9040524,0.2837189 c 0.031689,-9.55e-4 0.061988,0.021853 0.072221,0.051401 0.00899,0.031096 -0.00547,0.065765 -0.034124,0.080866 -0.024736,0.014755 -0.050267,0.00897 -0.077883,0.00984 -0.288139,1.318e-4 -0.5762816,-8.9e-5 -0.8644201,8.78e-5 -0.0304,-0.00124 -0.058662,-0.018529 -0.06969,-0.047582 -0.012118,-0.030353 0.00373,-0.068 0.031541,-0.083845 0.016738,-0.010291 0.034228,-0.010581 0.053201,-0.010732 0.2963341,-8.9e-5 0.5928166,-1.768e-4 0.889151,-4.2e-5 z M 2.3690654,3.9159217 c -0.057121,0.067752 -0.1446882,0.1099671 -0.2326051,0.117071 -0.086625,0.0064 -0.1745425,-0.024535 -0.238717,-0.082947 -0.011274,-0.010472 -0.022199,-0.01997 -0.030245,-0.033283 0.1671415,-7.488e-4 0.3344765,6.943e-4 0.5015681,-8.375e-4 z"
       style="fill:#404d54;fill-opacity:1;stroke:none;stroke-width:1.82457;stroke-dasharray:none;stroke-opacity:1" />
  </g>
</svg>

<?xml version="1.0" encoding="UTF-8"?>
<!-- Created with Inkscape (http://www.inkscape.org/) -->
<svg width="16" height="16" version="1.1" viewBox="0 0 4.2333 4.2333" xmlns="http://www.w3.org/2000/svg">
 <g>
  <rect x=".012274" y=".0058566" width="4.2251" height="4.2251" rx=".6" ry=".6" fill="#f1eee7" stroke-width=".069868"/>
  <path d="m2.0604 0.050125c-0.090202 0.0034386-0.18004 0.015453-0.26754 0.036646-0.19545 0.04336-0.38018 0.13555-0.53595 0.26082-0.045697 0.03825-0.091941 0.077541-0.13128 0.12244-0.10674 0.11255-0.19321 0.24468-0.25456 0.38713-0.061542 0.14588-0.098452 0.30145-0.10595 0.4597-0.002826 0.07604-0.002931 0.15288 0.005167 0.22858 0.008289 0.098199 0.031491 0.19336 0.060448 0.28729 0.030299 0.088763 0.070682 0.1744 0.11608 0.25635 0.07679 0.13426 0.16675 0.25486 0.23718 0.39379 0.033428 0.069739 0.063476 0.13982 0.083297 0.21482 0.02255 0.081705 0.031985 0.17082 0.046289 0.25272 0.018924 0.086376 0.036908 0.17052 0.086132 0.24582 0.022351 0.036655 0.052697 0.067103 0.087268 0.092335-0.057916 0.080463-0.054934 0.1969 0.014406 0.26971-0.024637 0.028614-0.044357 0.059558-0.051064 0.097352-0.010721 0.050369-0.00345 0.10327 0.021858 0.14822 0.025431 0.044009 0.064276 0.07967 0.11186 0.098247 0.03765 0.016188 0.077233 0.017831 0.11756 0.014459 0.03015 0.067007 0.077339 0.12372 0.13421 0.16972 0.065216 0.050866 0.14399 0.083901 0.22605 0.094427 0.086675 0.011269 0.1747-0.00514 0.25322-0.042767 0.09512-0.04868 0.17643-0.12249 0.22103-0.22088 0.032683-3.028e-4 0.06303 0.00116 0.094522-0.00945 0.084888-0.025527 0.15045-0.10366 0.15815-0.19238 0.00336-0.042566-0.00541-0.089403-0.030246-0.12482-0.0076-0.011375-0.016194-0.021307-0.024738-0.03228 0.068447-0.071275 0.074358-0.19183 0.012318-0.26897 0.020315-0.015146 0.039643-0.030295 0.056977-0.048976 0.050018-0.057819 0.078381-0.12711 0.097402-0.20042 0.029852-0.10972 0.03253-0.23136 0.062879-0.34108 0.027518-0.10505 0.071529-0.20201 0.12423-0.29653 0.068842-0.11951 0.14936-0.23316 0.21626-0.35495 0.030746-0.057618 0.057418-0.11722 0.080712-0.17817 0.025878-0.074255 0.050216-0.15169 0.06333-0.22928 0.0087-0.047686 0.015057-0.095713 0.019129-0.14404 0.00322-0.073014 0.00472-0.14559-0.00115-0.2185-0.012905-0.16162-0.058307-0.32101-0.12626-0.46793-0.07252-0.15562-0.17668-0.29649-0.30374-0.41192-0.19486-0.17772-0.44495-0.29439-0.70582-0.33194-0.088935-0.013438-0.1795-0.01869-0.2697-0.015281zm0.038759 0.1482c0.033702-4.201e-5 0.067401 9.5507e-4 0.10185 0.001529 0.094473 0.007068 0.18721 0.021651 0.27785 0.04972 0.10212 0.028709 0.19754 0.073864 0.28779 0.12929 0.19868 0.1276 0.35817 0.31442 0.45165 0.53138 0.035415 0.085086 0.065366 0.17116 0.082749 0.26181 0.017235 0.085086 0.024634 0.17241 0.021952 0.25918-0.00408 0.067303-0.00898 0.13257-0.023195 0.19873-0.013263 0.06845-0.033923 0.13555-0.057815 0.20102-0.043561 0.11424-0.10431 0.21815-0.1741 0.31813-0.01202 0.017878-0.023736 0.035863-0.03531 0.053999-0.089804 0.13625-0.1667 0.28268-0.20951 0.44083-0.023047 0.078582-0.033181 0.15661-0.043314 0.23752-0.011324 0.07247-0.024093 0.15487-0.061743 0.2188-0.022004 0.037103-0.060099 0.076099-0.10366 0.085133-0.00442-0.023246-0.00617-0.046788-0.011321-0.069881-0.018032-0.08012-0.05171-0.15626-0.10039-0.22252-0.026027-0.033427-0.053394-0.06566-0.08419-0.094818-0.063926-0.063626-0.12915-0.12597-0.19322-0.18944 0.075648-0.073711 0.15075-0.14787 0.22545-0.22258 0.05414-0.054391 0.097156-0.12 0.12611-0.19103 0.0603-0.14961 0.053302-0.3236-0.014696-0.46939-0.037154-0.082355-0.096112-0.15442-0.16133-0.21626-0.057816-0.055231-0.11474-0.11137-0.17271-0.16645 0.062484-0.063033 0.12656-0.12447 0.1893-0.1873 0.030101-0.031737 0.061589-0.060245 0.088163-0.095267 0.047733-0.060799 0.079377-0.13104 0.099245-0.20544 0.015198-0.058364 0.018473-0.11876 0.017877-0.17886-3.562e-4 -0.021508 0.00203-0.044209-0.00188-0.065422-0.00353-0.020467-0.022103-0.033236-0.04212-0.033923-0.026473-8.91e-4 -0.0533-6.4177e-4 -0.079774-1.9571e-4 -0.011473-2.4935e-4 -0.022745 0.006491-0.030245 0.014804-0.010431 0.013953-0.00957 0.028413-0.010082 0.044906-0.22958 1.499e-4 -0.4592 1.9672e-4 -0.68878 0-3.921e-4 -0.018375 0.00183-0.033675-0.013068-0.047238-0.017484-0.01828-0.039485-0.011527-0.062333-0.012817-0.024288 9.4452e-4 -0.051707-0.004198-0.071326 0.01361-0.018081 0.016943-0.012521 0.039233-0.013367 0.061438 0.0012 0.042165-0.00276 0.0833 0.00396 0.12423 0.011324 0.11643 0.059361 0.22853 0.13829 0.31521 0.031541 0.03825 0.068692 0.069739 0.10306 0.10525 0.050762 0.047485 0.099388 0.097254 0.14921 0.14578-0.058363 0.058163-0.11831 0.11469-0.17648 0.17305-0.045052 0.043609-0.089557 0.092383-0.12154 0.14657-0.040779 0.064972-0.067897 0.1366-0.082452 0.21175-0.015846 0.090845-0.011521 0.18482 0.014703 0.27334 0.027419 0.091046 0.078034 0.17598 0.14653 0.24209 0.073661 0.073369 0.14627 0.14797 0.22152 0.21974-0.047138 0.045298-0.093081 0.09179-0.13977 0.13759-0.043958 0.044258-0.088559 0.08693-0.12651 0.13674-0.0661 0.086424-0.11285 0.19341-0.12169 0.30239-0.027418-0.0051455-0.051257-0.023541-0.071225-0.042214-0.028068-0.02995-0.046939-0.070187-0.059805-0.10878-0.029005-0.08926-0.034524-0.17543-0.050965-0.26682-0.023395-0.15279-0.08394-0.30274-0.15979-0.4368-0.042667-0.07565-0.091493-0.14613-0.13898-0.2186-0.069737-0.10818-0.13009-0.21925-0.16933-0.34239-0.028858-0.088467-0.048427-0.1808-0.055232-0.27368-0.006261-0.045747-0.002686-0.092983-0.003629-0.13912-0.00114-0.031784 0.004923-0.062633 0.006063-0.094322 0.027866-0.23837 0.12607-0.46779 0.28298-0.64974 0.031292-0.039091 0.069136-0.07376 0.10465-0.10898 0.033677-0.030743 0.07039-0.060302 0.10774-0.086471 0.17097-0.12323 0.3767-0.196 0.58631-0.21388 0.034447-0.003725 0.068147-0.00487 0.10185-0.00487zm0.36415 0.58617c-0.010526 0.064666-0.035212 0.12652-0.073807 0.17961-0.027667 0.036406-0.058616 0.070387-0.092442 0.10118-0.060399 0.059062-0.12169 0.11742-0.1803 0.17831-0.038494-0.039788-0.079279-0.077283-0.11827-0.11658-0.043462-0.042318-0.089953-0.082851-0.12894-0.12944-0.052005-0.060847-0.089805-0.13307-0.10148-0.21284 0.23176 1.4999e-4 0.46348 0.0010511 0.69524-2.4924e-4zm-0.34565 0.66062c0.014951 0.011918 0.027217 0.025327 0.040876 0.038641 0.034821 0.03462 0.069885 0.068993 0.10456 0.10382 0.014901 0.015195 0.030647 0.028212 0.04386 0.044801-0.12616-0.00105-0.25243 6.402e-4 -0.37859-4.99e-4 0.063081-0.062289 0.12577-0.12492 0.1893-0.18676zm0.29578 0.32594c0.027171 0.04654 0.040136 0.097801 0.048182 0.1507-0.083546-6.953e-4 -0.16714 4.76e-5 -0.25069-3.029e-4 -0.14673 5.875e-4 -0.29355-9.444e-4 -0.44023 9.438e-4 0.00561-0.040037 0.014258-0.078631 0.031097-0.11554 0.00547-0.011469 0.010485-0.024889 0.019173-0.034277 0.015547-0.0021 0.03159-0.00105 0.047236-0.00124 0.18169-4.987e-4 0.36354 4.458e-4 0.54523-2.494e-4zm0.046595 0.29608c-0.00289 0.026818-0.012565 0.052652-0.022352 0.077684-0.00884 0.021508-0.018531 0.043617-0.031941 0.062691-0.00392 0.0064-0.00923 0.00514-0.015849 0.00563-0.17226 0-0.34446 3.028e-4 -0.51672-3.562e-4 -0.012615-5.521e-4 -0.027219 0.0019-0.039241-0.0023-0.00833-0.00812-0.013563-0.01996-0.019375-0.029999-0.01957-0.036056-0.033127-0.07291-0.041372-0.11309 0.22893-8.901e-4 0.45791-3.561e-4 0.68684-2.491e-4zm-0.50689 0.27811c0.10863 3.026e-4 0.21721-2.675e-4 0.32579 2.675e-4 -0.054638 0.052797-0.10967 0.10575-0.16138 0.16143-0.03914-0.036703-0.076-0.07565-0.11509-0.11236-0.017037-0.015845-0.032529-0.033179-0.049318-0.049319zm0.16455 0.37069c0.016143 0.011526 0.029459 0.026827 0.044011 0.040934 0.054242 0.053396 0.10789 0.10734 0.16198 0.16093 0.047287 0.046588 0.086972 0.10227 0.11315 0.16342 0.014305 0.033283 0.020458 0.068095 0.028703 0.10306-0.23221 5.529e-4 -0.46446 5.884e-4 -0.69667 0 0.00833-0.04187 0.018373-0.082546 0.037945-0.1208 0.024835-0.054781 0.064868-0.10381 0.10739-0.14593 0.034324-0.035213 0.069842-0.069243 0.10451-0.10411 0.033478-0.032043 0.064915-0.066166 0.09899-0.097505zm-0.45314 0.62233c0.21026 2.674e-4 0.42056-2.139e-4 0.63081 0 0.091046 1.328e-4 0.18214-1.756e-4 0.27319 8.88e-5 0.037949-0.0021 0.075998 0.030743 0.074906 0.069642 0.00115 0.039387-0.036264 0.072079-0.074906 0.06949-0.30294 0-0.60608 8.8e-5 -0.90897-4.48e-5 -0.041474 3.572e-4 -0.07803-0.040579-0.066954-0.081954 0.00736-0.033331 0.037402-0.058365 0.071922-0.057218zm0.90405 0.28372c0.031689-9.55e-4 0.061988 0.021853 0.072221 0.051401 0.00899 0.031096-0.00547 0.065765-0.034124 0.080866-0.024736 0.014755-0.050267 0.00897-0.077883 0.00984-0.28814 1.318e-4 -0.57628-8.9e-5 -0.86442 8.78e-5 -0.0304-0.00124-0.058662-0.018529-0.06969-0.047582-0.012118-0.030353 0.00373-0.068 0.031541-0.083845 0.016738-0.010291 0.034228-0.010581 0.053201-0.010732 0.29633-8.9e-5 0.59282-1.768e-4 0.88915-4.2e-5zm-0.19958 0.29395c-0.057121 0.067752-0.14469 0.10997-0.23261 0.11707-0.086625 0.0064-0.17454-0.024535-0.23872-0.082947-0.011274-0.010472-0.022199-0.01997-0.030245-0.033283 0.16714-7.488e-4 0.33448 6.943e-4 0.50157-8.375e-4z" fill="#404d54"/>
 </g>
</svg>
